X:100
T: ES ZOG EIN KNAB INS NIEDERLAND
N: Z0100
O: Europa, Mitteleuropa, Deutschland, Herzogtum Berg
R: Sagen - Lied, Romanze, Tod
M: 3/4
L: 1/8
K: G
DD=F | G3A_BB | A2G
A_Bc | d3dc_B | A2z
GGG | d3dc_B | A3
dc_B | d3c_BA | G2z

@@@ Tune index: 9858
